X:1
T:Thanks to God
T:Johannes Alfred Hultman, 1910
T:Thanks to God
T:Public Domain
T:Public Domain
C:Johannes Alfred Hultman, 1910
Z:Public Domain
%%score 1 ( 2 3 )
L:1/8
M:3/4
K:Bb
V:1 treble 
V:2 bass 
V:3 bass 
V:1
 [DF]>[B,D] | [DB]3 [B,D] [DF][EG] | [DF]2 [CE]2 [CE]>[A,C] | [CA]3 [B,G] [A,F][A,C] | %4
w: 1.~Thanks to|God for my Re-|deem- er, Thanks for|all Thou dost pro-|
w: 2.~Thanks for|prayers that Thou hast|an- swered, Thanks for|what Thou dost de-|
w: 3.~Thanks for|ros- es by the|way- side, Thanks for|thorns their stems con-|
 [B,D]4 [DF]>[B,D] | [Fd]3 [DB] [Fc][FB] | [GB]2 [EG]2 [GB]>[EG] | [DF]3 [DF] [EG][EA] | %8
w: vide! Thanks for|times now but a|mem- ory, Thanks for|Je- sus by my|
w: ny! Thanks for|storms that I have|wea- thered, Thanks for|all Thou dost sup-|
w: tain! Thanks for|home and thanks for|fire- side, Thanks for|hope, that sweet re-|
 [DB]4 [DB]>[FA] | [EG]3 [EG] [GB][EG] | [EG]2 [DF]2 [DF]>[DB] | [Fd]3 [Fc] [FB][Fd] | %12
w: side! Thanks for|plea- sant, balm- y|spring- time, Thanks for|dark and storm- y|
w: ply! Thanks for|pain, and thanks for|plea- sure, Thanks for|com- fort in des-|
w: frain! Thanks for|joy and thanks for|sor- row, Thanks for|heav’n- ly peace with|
 [Fc]4 [Fd]>[Fc] | [FB]3 [Fc] [^FB][FA] | G2 [Ge]2 [Ge]>[Ge] | [Fd]3 [DF] [Fd][Ec] | [DB]4 |] %17
w: fall! Thanks for|tears by now for-|gott- en, Thanks for|peace with- in my|soul!|
w: pair! Thanks for|grace that none can|mea- sure, Thanks for|love be- yond com-|pare!|
w: Thee! Thanks for|hope in the to-|mor- row, Thanks through|all e- ter- ni-|ty!|
V:2
 [B,,F,]>[B,,F,] | [B,,F,]3 [B,,F,] [B,,B,][B,,B,] | [F,B,]2 [F,A,]2 F,>F, | F,3 F, F,F, | %4
 [B,,F,]4 [B,,B,]>[B,,B,] | [B,,B,]3 [B,,B,] [D,B,][D,B,] | [E,B,]2 [E,B,]2 [E,B,]>[E,B,] | %7
 [F,B,]3 [F,B,] [F,A,]F, | [B,,F,]4 [B,,B,]>[D,B,] | [E,B,]3 [E,B,] [E,B,][E,B,] | %10
 [B,,B,]2 [B,,B,]2 B,>B, | B,3 [F,A,] [D,B,][B,,B,] | [F,A,]4 [F,A,]>[F,A,] | %13
 [D,B,]3 [D,B,] [D,C][D,C] | [E,B,]2 [E,B,]2 [E,B,]>[E,B,] | [F,B,]3 [F,B,] [F,A,][F,A,] | %16
 [B,,B,]4 |] %17
V:3
 x2 | x6 | x4 F,>F, | F,3 F, F,F, | x6 | x6 | x6 | x5 F, | x6 | x6 | x4 B,>B, | B,3 x3 | x6 | x6 | %14
 x6 | x6 | x4 |] %17

